img/svg-steel.svg

<svg width="20" height="16" viewBox="0 0 20 16" fill="none" xmlns="http://www.w3.org/2000/svg">
<path fill-rule="evenodd" clip-rule="evenodd" d="M0.801661 8.01133C0.799187 8.00712 0.799186 8.00189 0.801658 7.99764L5.47869 0.00669526C5.48112 0.00255022 5.48559 0 5.49039 0H14.7605C14.7653 0 14.7698 0.00257209 14.7722 0.00675346L19.398 7.99771C19.4004 8.00189 19.4004 8.00708 19.398 8.01126L14.7722 15.9932C14.7698 15.9974 14.7653 16 14.7605 16H5.49039C5.48559 16 5.48112 15.9975 5.47869 15.9933L0.801661 8.01133ZM14.4089 8C14.4089 10.3791 12.4803 12.3077 10.1013 12.3077C7.7222 12.3077 5.79358 10.3791 5.79358 8C5.79358 5.62091 7.7222 3.69232 10.1013 3.69232C12.4803 3.69232 14.4089 5.62091 14.4089 8Z" fill="#6594A1"/>
</svg>

<svg width="20" height="16" fill="none" xmlns="http://www.w3.org/2000/svg"><path fill-rule="evenodd" clip-rule="evenodd" d="M.802 8.011a.014.014 0 0 1 0-.013L5.479.007A.014.014 0 0 1 5.49 0h9.27c.005 0 .01.003.012.007l4.626 7.99a.014.014 0 0 1 0 .014l-4.626 7.982a.014.014 0 0 1-.011.007H5.49a.013.013 0 0 1-.012-.007L.802 8.011ZM14.409 8a4.308 4.308 0 1 1-8.615 0 4.308 4.308 0 0 1 8.615 0Z" fill="#6594A1"/></svg>
